X: 1
T: Murphy Granger's
M: 3/4
L: 1/8
R: waltz
K: Gmaj
|:GA|B2d2d2|e2d2B2|(B3c)BG|(D3E)GA|
B2d2d2|e2d2B2|d6|A4GA|
B2d2d2|e2d2B2|(B3c)BG|(D3E)GA|
B2d2d2|e2d2B2|1G6|G4:|2G6|(G3D) (3(GF)D||
|:E3DEF|GFG ABc|B3cde|d3D (3(GF)D|
E3DEF|G2B2c2|B6|1(G3D) (3(GFD):|2[B,4G4]||
